Optical/Säästöpankki.svg

<?xml version="1.0" encoding="UTF-8"?>
<svg width="153px" height="48px" viewBox="0 0 153 48" version="1.1" xmlns="http://www.w3.org/2000/svg" xmlns:xlink="http://www.w3.org/1999/xlink">
    <!-- Generator: Sketch 52.3 (67297) - http://www.bohemiancoding.com/sketch -->
    <title>Optical/Säästöpankki</title>
    <desc>Created with Sketch.</desc>
    <g id="Optical/Säästöpankki" stroke="none" stroke-width="1" fill="none" fill-rule="evenodd">
        <path d="M13.792345,23.0934962 L16.9548486,23.0934962 C15.3782969,24.3139685 14.4255172,26.180416 14.4255172,28.1784634 C14.4255172,30.1871991 15.3870257,32.0603268 16.9776777,33.2787951 L7.12691561,33.2787951 C8.71622471,32.0609948 9.67773322,30.1885352 9.67773322,28.1784634 C9.67773322,26.18242 8.7236106,24.3153045 7.14571605,23.0934962 L10.3075481,23.0934962 C11.3691019,24.5597998 11.9975739,26.315356 11.9975739,28.1784634 L12.0915762,28.1784634 C12.0915762,26.3213682 12.7314627,24.565812 13.792345,23.0934962 Z M5.8892396,16.7556592 C5.93624072,13.6360064 8.75697901,11 12.0483999,11 C15.3465352,11 18.1686164,13.6360064 18.2142746,16.7556592 L18.2156175,16.8578662 L18.3176771,16.8592022 C21.4519799,16.9046276 24.100157,19.7116471 24.100157,22.9882845 C24.100157,24.6563301 23.4468415,26.2235047 22.2603991,27.4012237 C21.0746281,28.5829509 19.4953907,29.2336022 17.8154366,29.2336022 C17.1963648,29.2336022 16.5678927,29.125383 15.9468066,28.9316572 C15.935392,28.8120817 15.8789907,28.1787988 15.8789907,28.1787988 C15.8789907,27.445313 16.0340944,26.7666049 16.3362444,26.1019251 C16.7901409,26.3243757 17.2729095,26.4459553 17.8154366,26.4459553 C18.7447158,26.4459553 19.6162507,26.0852246 20.272252,25.4305651 C20.9302676,24.7752376 21.2928476,23.9081478 21.2928476,22.9882845 C21.2928476,22.063745 20.9302676,21.1953192 20.2742663,20.5453358 C19.6222937,19.8933485 18.7507588,19.5346218 17.8194653,19.5346218 C16.9439017,19.5346218 16.4127891,19.6929425 15.8575045,19.8860002 C15.8575045,19.8860002 15.0376708,20.2099899 14.7180632,20.3355776 C14.8731669,19.9467901 15.1692739,19.1972718 15.1692739,19.1966037 C15.3639928,18.6408112 15.5231251,18.1097354 15.5231251,17.2499939 C15.5231251,16.3274584 15.1625594,15.4597006 14.5052153,14.8037051 C13.8512283,14.1517177 12.979022,13.792323 12.0483999,13.792323 C11.1218065,13.792323 10.2522859,14.1517177 9.5989704,14.8037051 C8.9409548,15.4583646 8.57904622,16.3274584 8.57904622,17.2499939 C8.57904622,18.1197557 8.74489301,18.666864 8.93222602,19.1972718 C8.93222602,19.1972718 9.25854804,20.0176002 9.38410816,20.3355776 C8.99332747,20.181265 8.24198109,19.8860002 8.24198109,19.8860002 C7.7108685,19.7002907 7.15894113,19.5346218 6.28539185,19.5346218 C5.35409835,19.5346218 4.48122051,19.8933485 3.82656214,20.5446678 C3.17056087,21.1939831 2.81066663,22.062409 2.81066663,22.9882845 C2.81066663,23.9074798 3.17190376,24.7739016 3.82790503,25.4305651 C4.48592062,26.0852246 5.35879846,26.4459553 6.28673474,26.4459553 C6.827919,26.4459553 7.31135903,26.3243757 7.76794128,26.1019251 C8.06874841,26.771949 8.22318064,27.4506572 8.22318064,28.1787988 C8.22318064,28.1787988 8.1681222,28.8120817 8.15737908,28.9316572 C7.53360715,29.125383 6.90446367,29.2336022 6.28673474,29.2336022 C4.60879496,29.2336022 3.03022897,28.5829509 1.84042934,27.4012237 C0.653315487,26.2181605 0,24.6509859 0,22.9882845 C0,19.7116471 2.6488485,16.9046276 5.78382282,16.8592022 L5.88789671,16.8578662 L5.8892396,16.7556592 Z M32.8559687,32.8913808 C30.5416025,32.8913808 28.545401,31.8983707 27.2073323,30.3405662 L28.9079797,28.6927801 C29.97472,29.8440611 31.5397032,30.5655199 33.0376618,30.5655199 C35.2607778,30.5655199 36.3275181,29.7990704 36.3275181,28.2637612 C36.3275181,27.044994 35.396442,26.4360121 32.7429152,25.6454604 C29.3852269,24.6524504 27.7742147,23.8177114 27.7742147,20.9961489 C27.7742147,18.2645678 30.088581,16.5950898 33.0150511,16.5950898 C35.170335,16.5950898 36.8039578,17.3848381 38.2106661,18.7385775 L36.5318219,20.4321577 C35.5337212,19.4158489 34.3983412,18.9185405 32.833358,18.9185405 C30.9728207,18.9185405 30.1782163,19.8207656 30.1782163,20.8828686 C30.1782163,21.9883555 30.9049887,22.5306547 33.6497657,23.3428983 C36.7813471,24.2909176 38.7323272,25.2847311 38.7323272,28.1062936 C38.7323272,30.9503515 36.9170113,32.8913808 32.8559687,32.8913808 Z M47.6700945,32.643292 L47.6700945,31.4695156 C46.8528793,32.2825627 45.6965037,32.8915445 44.4028488,32.8915445 C42.4736719,32.8915445 40.2731667,31.8077496 40.2731667,28.8954022 C40.2731667,26.2546061 42.3153971,25.0583343 45.0149527,25.0583343 C46.127722,25.0583343 47.0119617,25.2174087 47.6700945,25.5098485 L47.6700945,24.6293154 C47.6700945,23.3430621 46.8762975,22.6199965 45.4235603,22.6199965 C44.1985451,22.6199965 43.2456657,22.8473605 42.3153971,23.3663609 L41.4085466,21.6060979 C42.5423116,20.9063311 43.8125482,20.5439949 45.4921999,20.5439949 C48.1465341,20.5439949 49.96185,21.8310516 49.96185,24.5176419 L49.96185,32.643292 L47.6700945,32.643292 Z M43.223055,19.3252278 C42.3840367,19.3252278 41.679875,18.625461 41.679875,17.8124139 C41.679875,16.9776749 42.3840367,16.2779081 43.223055,16.2779081 C44.0402702,16.2779081 44.7428168,16.9776749 44.7428168,17.8124139 C44.7428168,18.625461 44.0402702,19.3252278 43.223055,19.3252278 Z M47.6700945,27.5866535 C47.0345724,27.2701115 46.2181647,27.0668497 44.9471206,27.0668497 C43.4499695,27.0668497 42.4962826,27.7441211 42.4962826,28.8287195 C42.4962826,30.0024959 43.2456657,30.7930476 44.7888457,30.7930476 C46.0364717,30.7930476 47.1258227,30.0249913 47.6700945,29.2802338 L47.6700945,27.5866535 Z M47.6466762,19.3252278 C46.8076579,19.3252278 46.1043037,18.625461 46.1043037,17.8124139 C46.1043037,16.9776749 46.8076579,16.2779081 47.6466762,16.2779081 C48.4638914,16.2779081 49.1680531,16.9776749 49.1680531,17.8124139 C49.1680531,18.625461 48.4638914,19.3252278 47.6466762,19.3252278 Z M58.9919159,32.643292 L58.9919159,31.4695156 C58.1747008,32.2825627 57.0183252,32.8915445 55.7246703,32.8915445 C53.7971085,32.8915445 51.5949881,31.8077496 51.5949881,28.8954022 C51.5949881,26.2546061 53.6372185,25.0583343 56.3375817,25.0583343 C57.4495434,25.0583343 58.3329756,25.2174087 58.9919159,25.5098485 L58.9919159,24.6293154 C58.9919159,23.3430621 58.198119,22.6199965 56.7453817,22.6199965 C55.5203665,22.6199965 54.5674872,22.8473605 53.6372185,23.3663609 L52.7295606,21.6060979 C53.864133,20.9063311 55.1343696,20.5439949 56.8140214,20.5439949 C59.4683556,20.5439949 61.2836715,21.8310516 61.2836715,24.5176419 L61.2836715,32.643292 L58.9919159,32.643292 Z M54.5448765,19.3252278 C53.7050506,19.3252278 53.0016965,18.625461 53.0016965,17.8124139 C53.0016965,16.9776749 53.7050506,16.2779081 54.5448765,16.2779081 C55.3620917,16.2779081 56.0646383,16.9776749 56.0646383,17.8124139 C56.0646383,18.625461 55.3620917,19.3252278 54.5448765,19.3252278 Z M58.9919159,27.5866535 C58.3563939,27.2701115 57.5399862,27.0668497 56.2689421,27.0668497 C54.771791,27.0668497 53.8181041,27.7441211 53.8181041,28.8287195 C53.8181041,30.0024959 54.5674872,30.7930476 56.1098597,30.7930476 C57.3582931,30.7930476 58.4476442,30.0249913 58.9919159,29.2802338 L58.9919159,27.5866535 Z M58.9684977,19.3252278 C58.1294794,19.3252278 57.4269327,18.625461 57.4269327,17.8124139 C57.4269327,16.9776749 58.1294794,16.2779081 58.9684977,16.2779081 C59.7857129,16.2779081 60.489067,16.9776749 60.489067,17.8124139 C60.489067,18.625461 59.7857129,19.3252278 58.9684977,19.3252278 Z M67.3634462,32.8913808 C65.7524341,32.8913808 64.0049503,32.2591001 62.8025458,31.3785669 L63.8692861,29.618304 C64.9812479,30.3855569 66.2280663,30.7920804 67.3408355,30.7920804 C68.8153759,30.7920804 69.5187301,30.3188742 69.5187301,29.4825284 C69.5187301,28.5803032 68.4746004,28.1512843 66.7505349,27.4973117 C64.1874509,26.5026948 63.2571823,25.6454604 63.2571823,23.7727206 C63.2571823,21.6509249 64.9360265,20.5438312 67.3174173,20.5438312 C68.8153759,20.5438312 70.2899163,21.0853269 71.3558492,21.8541867 L70.3351377,23.636945 C69.3596477,22.9588702 68.3841577,22.6206362 67.2503927,22.6206362 C66.1150128,22.6206362 65.6167699,23.0721504 65.6167699,23.7036277 C65.6167699,24.2909176 66.0253775,24.7199365 67.8172752,25.4197033 C70.4716094,26.4360121 71.8322888,27.1582743 71.8322888,29.3925469 C71.8322888,32.0108476 69.6996157,32.8913808 67.3634462,32.8913808 Z M79.4089707,32.3495647 C78.8420882,32.6653033 78.0482913,32.8910604 77.1172151,32.8910604 C75.4609816,32.8910604 74.4402701,31.875555 74.4402701,29.7545627 L74.4402701,22.9151659 L72.7388153,22.9151659 L72.7388153,20.7925667 L74.4402701,20.7925667 L74.4402701,17.4062097 L76.7320257,16.1874425 L76.7320257,20.7925667 L79.6819141,20.7925667 L79.6819141,22.9151659 L76.7320257,22.9151659 L76.7320257,29.3488426 C76.7320257,30.4535261 77.0946044,30.7700681 77.9570409,30.7700681 C78.5691448,30.7700681 79.2506958,30.544311 79.6819141,30.2960585 L79.4089707,32.3495647 Z M86.1702149,32.8913808 C83.1759127,32.8913808 80.9293785,30.4305477 80.9293785,26.728452 C80.9293785,22.8471967 83.2437448,20.5438312 86.2388545,20.5438312 C89.2791857,20.5438312 91.547523,22.9588702 91.547523,26.6617693 C91.547523,30.5888187 89.2331567,32.8913808 86.1702149,32.8913808 Z M83.9697097,19.4383443 C83.1306913,19.4383443 82.4265296,18.7385775 82.4265296,17.9255304 C82.4265296,17.0907914 83.1306913,16.3902212 83.9697097,16.3902212 C84.7861173,16.3902212 85.4894715,17.0907914 85.4894715,17.9255304 C85.4894715,18.7385775 84.7861173,19.4383443 83.9697097,19.4383443 Z M86.1476042,22.7564118 C84.3783172,22.7564118 83.2889662,24.313413 83.2889662,26.6617693 C83.2889662,29.2567712 84.4913707,30.6788002 86.2614652,30.6788002 C88.0307522,30.6788002 89.1879353,28.8960418 89.1879353,26.728452 C89.1879353,24.313413 88.0307522,22.7564118 86.1476042,22.7564118 Z M88.3933309,19.4383443 C87.5543125,19.4383443 86.8517659,18.7385775 86.8517659,17.9255304 C86.8517659,17.0907914 87.5543125,16.3902212 88.3933309,16.3902212 C89.210546,16.3902212 89.9139002,17.0907914 89.9139002,17.9255304 C89.9139002,18.7385775 89.210546,19.4383443 88.3933309,19.4383443 Z M98.7035661,32.8913808 C97.5011616,32.8913808 96.3657816,32.2591001 95.7084564,31.536838 L95.7084564,35.8037282 L93.3940901,37 L93.3940901,20.7920837 L95.7084564,20.7920837 L95.7084564,21.9208694 C96.5700854,21.1311211 97.5681861,20.5438312 98.8166196,20.5438312 C101.380511,20.5438312 103.400131,22.394879 103.400131,26.9100218 C103.400131,30.9720434 101.176207,32.8913808 98.7035661,32.8913808 Z M98.3862088,22.6881223 C97.2734395,22.6881223 96.298757,23.4336832 95.6858457,24.2009361 L95.6858457,29.1884817 C96.2075067,29.8890519 97.2968578,30.7478931 98.4766516,30.7478931 C100.155496,30.7478931 101.062346,29.4825284 101.062346,26.9775079 C101.062346,23.9984778 100.109467,22.6881223 98.3862088,22.6881223 Z M112.087477,32.643292 L112.087477,31.4695156 C111.270262,32.2825627 110.113886,32.8915445 108.820232,32.8915445 C106.89267,32.8915445 104.690549,31.8077496 104.690549,28.8954022 C104.690549,26.2546061 106.73278,25.0583343 109.433143,25.0583343 C110.545105,25.0583343 111.429344,25.2174087 112.087477,25.5098485 L112.087477,24.6293154 C112.087477,23.3430621 111.29368,22.6199965 109.840943,22.6199965 C108.615928,22.6199965 107.663048,22.8473605 106.73278,23.3663609 L105.825122,21.6060979 C106.959694,20.9063311 108.229931,20.5439949 109.909583,20.5439949 C112.563917,20.5439949 114.379233,21.8310516 114.379233,24.5176419 L114.379233,32.643292 L112.087477,32.643292 Z M112.087477,27.5866535 C111.451955,27.2701115 110.635548,27.0668497 109.364503,27.0668497 C107.867352,27.0668497 106.913665,27.7441211 106.913665,28.8287195 C106.913665,30.0024959 107.663048,30.7930476 109.205421,30.7930476 C110.453854,30.7930476 111.543205,30.0249913 112.087477,29.2802338 L112.087477,27.5866535 Z M123.971907,32.643292 L123.971907,25.9388674 C123.971907,23.5471272 123.064249,22.688286 121.521877,22.688286 C119.956086,22.688286 119.071039,23.7953798 119.071039,25.7139137 L119.071039,32.643292 L116.734869,32.643292 L116.734869,20.7922474 L119.071039,20.7922474 L119.071039,21.9210331 C119.661339,21.0629953 120.841133,20.5439949 122.066148,20.5439949 C124.834344,20.5439949 126.308077,22.3508554 126.308077,25.8480825 L126.308077,32.643292 L123.971907,32.643292 Z M135.438674,32.643292 L132.806951,26.7519145 L130.992442,29.1444581 L130.992442,32.643292 L128.654658,32.643292 L128.654658,17.4058904 L130.992442,16.1871232 L130.992442,23.6588007 C130.992442,24.3810629 130.969024,25.6006334 130.969024,26.1879234 C131.286381,25.7139137 131.877489,24.8108852 132.286097,24.2460906 L134.757931,20.7922474 L137.412265,20.7922474 L134.395352,24.7658944 L137.979147,32.643292 L135.438674,32.643292 Z M146.245701,32.643292 L143.613977,26.7519145 L141.798662,29.1444581 L141.798662,32.643292 L139.461685,32.643292 L139.461685,17.4058904 L141.798662,16.1871232 L141.798662,23.6588007 C141.798662,24.3810629 141.776051,25.6006334 141.776051,26.1879234 C142.093408,25.7139137 142.684516,24.8108852 143.091509,24.2460906 L145.564958,20.7922474 L148.219292,20.7922474 L145.202379,24.7658944 L148.786982,32.643292 L146.245701,32.643292 Z M151.502041,19.25782 C150.662216,19.25782 149.981472,18.5805486 149.981472,17.7683049 C149.981472,16.9319591 150.662216,16.2554911 151.502041,16.2554911 C152.319257,16.2554911 153,16.9319591 153,17.7683049 C153,18.5805486 152.319257,19.25782 151.502041,19.25782 Z M152.659225,32.6433704 L150.322248,32.6433704 L150.322248,20.7923258 L152.659225,20.7923258 L152.659225,32.6433704 Z" id="Cropped/Säästöpankki" fill="#00B5D1"></path>
    </g>
</svg>

<svg width="153" height="48" xmlns="http://www.w3.org/2000/svg"><path d="M13.792 23.093h3.163c-1.577 1.221-2.53 3.087-2.53 5.085 0 2.01.962 3.882 2.553 5.1H7.127c1.59-1.217 2.55-3.09 2.55-5.1 0-1.996-.953-3.863-2.531-5.085h3.162c1.061 1.467 1.69 3.222 1.69 5.085h.094c0-1.857.64-3.612 1.7-5.085zM5.89 16.756C5.936 13.636 8.757 11 12.05 11c3.298 0 6.12 2.636 6.165 5.756l.002.102.102.001c3.134.046 5.782 2.853 5.782 6.13a6.176 6.176 0 0 1-1.84 4.412 6.256 6.256 0 0 1-4.445 1.833 6.29 6.29 0 0 1-1.868-.302c-.012-.12-.068-.753-.068-.753 0-.734.155-1.412.457-2.077a3.29 3.29 0 0 0 1.48.344c.929 0 1.8-.36 2.456-1.015a3.426 3.426 0 0 0 1.02-2.443c0-.924-.362-1.793-1.018-2.443a3.445 3.445 0 0 0-2.455-1.01c-.875 0-1.406.158-1.961.351l-1.14.45.451-1.14c.195-.555.354-1.086.354-1.946 0-.923-.36-1.79-1.018-2.446a3.455 3.455 0 0 0-2.457-1.012c-.926 0-1.796.36-2.449 1.012a3.43 3.43 0 0 0-1.02 2.446c0 .87.166 1.417.353 1.947 0 0 .327.82.452 1.139-.39-.155-1.142-.45-1.142-.45-.531-.186-1.083-.351-1.957-.351-.93 0-1.804.358-2.458 1.01a3.413 3.413 0 0 0-1.016 2.443c0 .92.36 1.786 1.017 2.443a3.464 3.464 0 0 0 2.459 1.015c.54 0 1.024-.122 1.48-.344a4.96 4.96 0 0 1 .456 2.077l-.066.753a6.324 6.324 0 0 1-1.87.302A6.27 6.27 0 0 1 1.84 27.4 6.192 6.192 0 0 1 0 22.988c0-3.276 2.649-6.083 5.784-6.129l.104-.001.001-.102zM32.856 32.89c-2.314 0-4.31-.993-5.649-2.55l1.701-1.648c1.067 1.151 2.632 1.873 4.13 1.873 2.223 0 3.29-.767 3.29-2.302 0-1.219-.932-1.828-3.585-2.619-3.358-.993-4.969-1.827-4.969-4.649 0-2.731 2.315-4.4 5.241-4.4 2.155 0 3.789.789 5.196 2.143l-1.68 1.693c-.997-1.016-2.133-1.513-3.698-1.513-1.86 0-2.655.902-2.655 1.964 0 1.105.727 1.648 3.472 2.46 3.131.948 5.082 1.942 5.082 4.763 0 2.844-1.815 4.785-5.876 4.785zm14.814-.248V31.47c-.817.813-1.973 1.422-3.267 1.422-1.93 0-4.13-1.084-4.13-3.997 0-2.64 2.042-3.837 4.742-3.837 1.113 0 1.997.16 2.655.452v-.88c0-1.287-.794-2.01-2.246-2.01-1.225 0-2.178.227-3.109.746l-.906-1.76c1.133-.7 2.404-1.062 4.083-1.062 2.655 0 4.47 1.287 4.47 3.974v8.125H47.67zm-4.447-13.318c-.839 0-1.543-.7-1.543-1.513 0-.834.704-1.534 1.543-1.534.817 0 1.52.7 1.52 1.534 0 .813-.703 1.513-1.52 1.513zm4.447 8.262c-.635-.317-1.452-.52-2.723-.52-1.497 0-2.45.677-2.45 1.762 0 1.173.749 1.964 2.292 1.964 1.247 0 2.337-.768 2.881-1.513v-1.693zm-.023-8.262c-.84 0-1.543-.7-1.543-1.513 0-.834.704-1.534 1.543-1.534.817 0 1.521.7 1.521 1.534 0 .813-.704 1.513-1.521 1.513zm11.345 13.318V31.47c-.817.813-1.974 1.422-3.267 1.422-1.928 0-4.13-1.084-4.13-3.997 0-2.64 2.042-3.837 4.743-3.837 1.112 0 1.995.16 2.654.452v-.88c0-1.287-.794-2.01-2.247-2.01-1.225 0-2.178.227-3.108.746l-.907-1.76c1.134-.7 2.404-1.062 4.084-1.062 2.654 0 4.47 1.287 4.47 3.974v8.125h-2.292zm-4.447-13.318c-.84 0-1.543-.7-1.543-1.513 0-.834.703-1.534 1.543-1.534.817 0 1.52.7 1.52 1.534 0 .813-.703 1.513-1.52 1.513zm4.447 8.262c-.636-.317-1.452-.52-2.723-.52-1.497 0-2.45.677-2.45 1.762 0 1.173.748 1.964 2.29 1.964 1.25 0 2.339-.768 2.883-1.513v-1.693zm-.024-8.262c-.839 0-1.541-.7-1.541-1.513 0-.834.702-1.534 1.541-1.534.818 0 1.521.7 1.521 1.534 0 .813-.703 1.513-1.52 1.513zm8.395 13.566c-1.61 0-3.358-.632-4.56-1.512l1.066-1.76c1.112.767 2.36 1.173 3.472 1.173 1.474 0 2.178-.473 2.178-1.31 0-.902-1.044-1.33-2.768-1.985-2.564-.994-3.494-1.852-3.494-3.724 0-2.122 1.679-3.23 4.06-3.23 1.498 0 2.973.542 4.039 1.311l-1.02 1.783c-.976-.678-1.952-1.016-3.086-1.016-1.135 0-1.633.451-1.633 1.083 0 .587.408 1.016 2.2 1.716 2.655 1.016 4.015 1.738 4.015 3.973 0 2.618-2.132 3.498-4.469 3.498zm12.046-.541c-.567.315-1.36.541-2.292.541-1.656 0-2.677-1.015-2.677-3.136v-6.84h-1.7v-2.122h1.701v-3.387l2.292-1.219v4.606h2.95v2.122h-2.95v6.434c0 1.105.363 1.421 1.225 1.421.612 0 1.294-.226 1.725-.474l-.273 2.054zm6.761.541c-2.994 0-5.24-2.46-5.24-6.163 0-3.88 2.314-6.184 5.309-6.184 3.04 0 5.309 2.415 5.309 6.118 0 3.927-2.315 6.23-5.378 6.23zm-2.2-13.453c-.84 0-1.543-.7-1.543-1.512 0-.835.704-1.536 1.543-1.536.816 0 1.52.7 1.52 1.536 0 .813-.704 1.512-1.52 1.512zm2.178 3.318c-1.77 0-2.859 1.557-2.859 3.906 0 2.595 1.202 4.017 2.972 4.017s2.927-1.783 2.927-3.95c0-2.416-1.157-3.973-3.04-3.973zm2.245-3.318c-.839 0-1.541-.7-1.541-1.512 0-.835.702-1.536 1.541-1.536.818 0 1.52.7 1.52 1.536 0 .813-.702 1.512-1.52 1.512zm10.31 13.453c-1.202 0-2.337-.632-2.995-1.354v4.267L93.394 37V20.792h2.314v1.129c.862-.79 1.86-1.377 3.109-1.377 2.564 0 4.583 1.85 4.583 6.366 0 4.062-2.224 5.981-4.696 5.981zm-.317-10.203c-1.113 0-2.087.746-2.7 1.513v4.987c.522.701 1.61 1.56 2.79 1.56 1.68 0 2.586-1.265 2.586-3.77 0-2.98-.953-4.29-2.676-4.29zm13.701 9.955V31.47c-.817.813-1.973 1.422-3.267 1.422-1.927 0-4.13-1.084-4.13-3.997 0-2.64 2.043-3.837 4.743-3.837 1.112 0 1.996.16 2.654.452v-.88c0-1.287-.793-2.01-2.246-2.01-1.225 0-2.178.227-3.108.746l-.908-1.76c1.135-.7 2.405-1.062 4.085-1.062 2.654 0 4.47 1.287 4.47 3.974v8.125h-2.293zm0-5.056c-.635-.317-1.451-.52-2.722-.52-1.498 0-2.451.677-2.451 1.762 0 1.173.749 1.964 2.291 1.964 1.249 0 2.338-.768 2.882-1.513v-1.693zm11.885 5.056V25.94c0-2.392-.908-3.25-2.45-3.25-1.566 0-2.451 1.106-2.451 3.025v6.93h-2.336V20.791h2.336v1.129c.59-.858 1.77-1.377 2.995-1.377 2.768 0 4.242 1.807 4.242 5.304v6.795h-2.336zm11.467 0l-2.632-5.891-1.815 2.392v3.5h-2.337V17.405l2.337-1.219v7.472c0 .722-.023 1.942-.023 2.529.317-.474.908-1.377 1.317-1.942l2.472-3.454h2.654l-3.017 3.974 3.584 7.877h-2.54zm10.807 0l-2.632-5.891-1.815 2.392v3.5h-2.337V17.405l2.337-1.219v7.472c0 .722-.023 1.942-.023 2.529.317-.474.909-1.377 1.316-1.942l2.473-3.454h2.654l-3.017 3.974 3.585 7.877h-2.541zm5.256-13.385c-.84 0-1.52-.677-1.52-1.49 0-.836.68-1.513 1.52-1.513.817 0 1.498.677 1.498 1.513 0 .813-.68 1.49-1.498 1.49zm1.157 13.385h-2.337v-11.85h2.337v11.85z" fill="#00B5D1" fill-rule="evenodd"/></svg>
